X:213
T:Reel 213
M:2/4
K:Gmaj
L:1/8
D4|GA Bcd2 ef |ga gedB AG |Bd ecd2 d2 |cA BGAG ED |GA Bcd2 ef |gf efd2 Bd |ef gedB gB |AG ABA2 Bd |e2 efed Bd |ea abef gd |Bc dBeB B2 |AG ABA2 Bd |ea agef ge |de dBc2 AG |eg fdec dB |AG EAG2 |
